brandFactory_export/2.Regular/Favoritos_2Regular.svg

<?xml version="1.0" encoding="UTF-8"?>
<svg width="24px" height="24px" viewBox="0 0 24 24" version="1.1" xmlns="http://www.w3.org/2000/svg" xmlns:xlink="http://www.w3.org/1999/xlink">
    <title>2.Regular/Favoritos_2Regular</title>
    <g id="Symbols" stroke="none" stroke-width="1" fill="none" fill-rule="evenodd">
        <g id="2.Regular/Favoritos_2Regular" fill="#5CB615" fill-rule="nonzero">
            <path d="M17.4991597,23.589916 C17.0857143,23.589916 16.6722689,23.4857143 16.292437,23.2773109 L11.8184874,20.8268908 C11.805042,20.8201681 11.7882353,20.8201681 11.7747899,20.8268908 L7.30084034,23.2773109 C6.45378151,23.7411765 5.43193277,23.6840336 4.64201681,23.1226891 C3.80504202,22.5310924 3.39159664,21.5226891 3.56302521,20.4941176 L4.41680672,15.3042017 C4.42352941,15.2638655 4.41008403,15.2268908 4.38655462,15.2 L0.769747899,11.5260504 C0.0571428571,10.8033613 -0.181512605,9.7512605 0.144537815,8.77647059 C0.457142857,7.83529412 1.24705882,7.16302521 2.20168067,7.01848739 L7.2,6.26218487 C7.22352941,6.25882353 7.24369748,6.24201681 7.25378151,6.22184874 C7.25378151,6.21848739 7.25378151,6.21848739 7.25714286,6.21512605 L9.49243697,1.49243697 C9.92268908,0.571428571 10.810084,0.00336134454 11.7983193,0.00336134454 C12.7865546,0.00336134454 13.6739496,0.571428571 14.107563,1.48907563 L16.3428571,6.21176471 C16.3428571,6.21512605 16.3428571,6.21512605 16.3462185,6.21848739 C16.3563025,6.23865546 16.3764706,6.25546218 16.4,6.25882353 L21.3983193,7.01512605 C22.3529412,7.15966387 23.1428571,7.83529412 23.4554622,8.77647059 C23.7781513,9.7512605 23.5394958,10.8033613 22.8268908,11.5260504 L19.210084,15.2 C19.1831933,15.2268908 19.1731092,15.2638655 19.1798319,15.3042017 L20.0336134,20.497479 C20.2016807,21.5260504 19.7882353,22.5344538 18.9546218,23.1260504 C18.5176471,23.4352941 18.010084,23.589916 17.4991597,23.589916 Z M11.7983193,19.5159664 C12.0235294,19.5159664 12.2453782,19.5731092 12.4504202,19.6840336 L16.9210084,22.1344538 C17.5159664,22.4605042 18.0134454,22.1915966 18.1983193,22.0605042 C18.5310924,21.8252101 18.8470588,21.3478992 18.7428571,20.7092437 L17.8890756,15.5193277 C17.8151261,15.0756303 17.9563025,14.6151261 18.2722689,14.292437 L18.2756303,14.2890756 L21.8957983,10.6117647 C22.3327731,10.1680672 22.3462185,9.58655462 22.2151261,9.18991597 C22.0537815,8.7092437 21.6773109,8.37983193 21.2033613,8.3092437 L16.2016807,7.54957983 L16.194958,7.54957983 C15.7411765,7.47563025 15.3546218,7.18655462 15.1630252,6.7697479 L12.9277311,2.05042017 C12.7092437,1.58655462 12.2857143,1.31092437 11.7983193,1.31092437 C11.3109244,1.31092437 10.8907563,1.58655462 10.6722689,2.05042017 L8.43697479,6.7697479 C8.24201681,7.18655462 7.85882353,7.47563025 7.40504202,7.54957983 L7.39831933,7.54957983 L2.39663866,8.30588235 C1.92268908,8.37647059 1.54285714,8.70588235 1.38487395,9.18655462 C1.25378151,9.58319328 1.26722689,10.1647059 1.70420168,10.6084034 L5.3210084,14.2857143 L5.32436975,14.2890756 C5.64033613,14.6117647 5.78151261,15.0722689 5.70756303,15.5193277 L4.85378151,20.7092437 C4.74957983,21.3445378 5.06554622,21.8252101 5.39831933,22.0605042 C5.58319328,22.1915966 6.07731092,22.4605042 6.67563025,22.1344538 L11.1495798,19.6840336 C11.3512605,19.5731092 11.5731092,19.5159664 11.7983193,19.5159664 L11.7983193,19.5159664 Z" id="Favoritos_2Regular"></path>
        </g>
    </g>
</svg>

<svg width="24" height="24" viewBox="0 0 24 24" xmlns="http://www.w3.org/2000/svg"><path d="M17.5 23.59c-.414 0-.828-.104-1.208-.313l-4.474-2.45a.05.05 0 00-.043 0L7.3 23.277a2.495 2.495 0 01-2.659-.154 2.655 2.655 0 01-1.079-2.629l.854-5.19a.126.126 0 00-.03-.104L.77 11.526a2.68 2.68 0 01-.625-2.75 2.578 2.578 0 012.057-1.758L7.2 6.262a.074.074 0 00.054-.04c0-.004 0-.004.003-.007l2.235-4.723C9.922.572 10.81.003 11.798.003c.989 0 1.876.568 2.31 1.486l2.235 4.723c0 .003 0 .003.003.006.01.02.03.037.054.04l4.998.757c.955.145 1.745.82 2.057 1.761a2.689 2.689 0 01-.628 2.75L19.21 15.2a.116.116 0 00-.03.104l.854 5.193a2.668 2.668 0 01-1.08 2.63c-.436.308-.944.463-1.455.463zm-5.702-4.074c.226 0 .447.057.652.168l4.471 2.45a1.178 1.178 0 001.277-.073c.333-.236.65-.713.545-1.352l-.854-5.19a1.425 1.425 0 01.383-1.227l.004-.003 3.62-3.677c.437-.444.45-1.025.32-1.422-.162-.48-.539-.81-1.013-.88l-5.001-.76h-.007a1.373 1.373 0 01-1.032-.78l-2.235-4.72c-.219-.463-.642-.74-1.13-.74-.487 0-.907.277-1.126.74L8.437 6.77a1.379 1.379 0 01-1.032.78h-.007l-5.001.756c-.474.07-.854.4-1.012.88-.131.397-.118.979.32 1.422l3.616 3.678.003.003c.316.323.458.783.384 1.23l-.854 5.19a1.367 1.367 0 00.544 1.352c.185.13.68.4 1.278.073l4.474-2.45c.201-.11.423-.168.648-.168z" fill="#5CB615" fill-rule="nonzero"/></svg>
